X:1
T:C Major Ezra Goff, 1805
T:Isaac Watts, 1717 (Psalm 97, Part 1)        88. 88. (L. M.)
T:Justice
T:Transcribed from  The New-England Selection, 1808.
%%score [ 1 2 3 4 ]
L:1/8
Q:1/4=120
M:2/2
K:C
V:1 treble nm="Tr." snm="Tr."
V:2 treble nm="C." snm="C."
V:3 treble-8 nm="T." snm="T."
V:4 bass nm="B." snm="B."
V:1
"^2.  In robes of judg – ment, lo! ___  he comes, Shakes the wide earth and cleaves the tombs; Before him burns de–vou  – ring   fire;        The""^1. He reigns! the Lord, the  Sa     –   vior  reigns; Praise him in e–van–ge   –   lic strains; Let the whole earth in songs ___  re– joice,        And" G4 c2 c2 | %1
 (e3 d e2) g2 | (e2 f2 ed) c2 | B6 B2 | c2 c2 B2 A2 | (B3 c d2) ec | d8 | c4 e2 f2 | e6 d2 | %9
 (c2 d2 ed) c2 | [Bd]8 | z4 c4 | %12
"^distant    islands     join  their voice.                                                                                           But  grace and   truth sup  – port   his     throne; _____                                                                  Though gloomy clouds his   ways  surround,  Jus– tice ________  is  their  eternal  ground.""^mountains melt, the seas  re – tire.                                                                                               Fly  from  the   sight, and     shun  the      day; _________                                                                       Then  lift your heads, ye saints,  on  high,   And sing, _______ for your redemption's nigh." e2 e2 fe d2 | %13
 c4 [Bd]4 | [ce]8 | z8 | z8 | z8 | z8 | z4 z2 B2 | c4 (e2 c2) | d4 (c2 e2) | (d2 c2) B4 | c8- | %24
 c4 z4 | z8 | z8 | %27
 z4 z2"^Though gloomy clouds his ways surround, Jus– tice ________________  is  their e – ter – nal  ground.""^Then    lift yourheads, ye  saints, on  high,  And sing, ______________ for your re–demp–tion's nigh." c2 | %28
 e2 e2 e2 ec | f2 fe d2 d2 | (e3 d c3 d | e2) e2 d2 d2 | c4 d4 | e8 |] %34
V:2
 E4 E2 E2 | G6 G2 | G6 FE | D6 D2 | E2 EF G2 A2 | (G2 E2 A2) G2 | G8 | G4 G2 F2 | G6 F2 | %9
 (E2 G2 A2) G2 | G8 | z4 G4 | E2 E2 A2 A2 | G4 G4 | G8 | z8 | z8 | z8 | z8 | z4 z2 G2 | %20
 G4 (E2 F2) | G4 G4 | A4 G4 | G8- | G4 z4 | z8 | %26
 z4 z2"^Though gloomy clouds his ways  surround, _______                Jus  – tice            is        their    e     –    ter – nal ground.""^Then  lift your heads, ye saints, on high, _________                And   sing,          for      your   re    –  demp–tion's nigh." E2 | %27
 G2 G2 G2 G2 | A2 A2 (A4 | G6) G2 | G6 G2 | E4 A4 | G4 G4 | G8 |] %34
V:3
"^1. He reigns! the Lord, the  Sa   –   vior  reigns; Praise him in e–van–ge   –    lic strains; Let the whole earth in songs ___  re– joice,        And""^2.  In robes of judg – ment, lo! ___  he comes, Shakes the wide earth and cleaves the tombs; Before him burns de–vou – ring   fire;        The" c4 G2 G2 | %1
 (c3 d c2) d2 | (e2 d2 e2) f2 | g6 g2 | e2 e2 d2 c2 | (e2 g2 f2) e2 | d8 | e4 c2 A2 | G6 G2 | %9
 (c2 B2 cd) e2 | d8 | z4 e4 | %12
"^distant    islands   join their voice.                 Deep are his counsels, and unknown,     But grace and    truth sup – port   his     throne;  _____""^mountains melt, the seas re – tire.                   His   e –ne–mies, with sore dis–may,     Fly  from  the    sight, and    shun   the    day; __________                         Then lift your heads, ye saints, on high, And sing, for your redemption's nigh. And sing, _______ for your redemption's nigh." g2 ge c2 f2 | %13
 e4 d4 | c8 | z8 | e4 c2 c2 | d4 e4 | f4 e4 | d6 d2 | e4 c4 | d4 g4 | (f2 e2) d4 | c8- | c4 z4 | %25
 z4 z2"^Though gloomy clouds his ways surround,  Justice is their e – ter–nal ground. Jus–tice ___________________  is  their e–ter–nal ground.""^Then  lift your heads, ye saints, on high, And sing, for your redemption's nigh. And sing, _________________ for your redemption's nigh." d2 | %26
 e2 e2 e2 ec | d2 d2 d2 e2 | c2 c>B c2 e2 | dc BA G2 G2 | (c3 d e3 f | g2) g2 f2 f2 | e4 d4 | c8 |] %34
V:4
 C,4 C,2 C,2 | C,6 G,2 | (C2 B,2 C2) A,2 | G,6 G,2 | A,2 A,2 G,2 F,2 | (E,4 D,2) C,2 | G,8 | %7
 C,4 C,2 D,2 | E,6 G,2 | (A,2 G,2 A,B,) C2 | G,8- | G,4 C,4 | C2 C2 F,2 F,2 | G,4 G,4 | C,8 | z8 | %16
 C4 A,2 A,2 | G,4 E,4 | D,4 C,4 | G,6 G,2 | C4 A,4 | G,4 E,4 | F,4 G,4 | C,8- | %24
 C,4"^Though""^Then" C,4 | %25
"^gloomy clouds his ways surround,  Jus–tice            is     their                e     –    ter         –        nal   ground.  Jus    –    tice is their e – ter – nal ground.""^lift your heads, ye saints, on high, And sing,           for  your                re    –   demp    –       tion's nigh.     And       sing, for your redemption's nigh." G,2 G,2 G,2 G,2 | %26
 C2 C2 C2 C,2 | G,6 E,2 | A,6 A,2 | D,6 G,2 | [C,C]4 C,4 | %31
"^______________________________________________________\nEdited by B. C. Johnston, 2016\nMeasure 27, Bass: last quarter-note changed from B to C." C,2 E,2 F,2 F,2 | %32
 C4 G,4 | C,8 |] %34

